;FLAVOR:Marlin
;TIME:1759
;Filament used: 1.11098m
;Layer height: 0.2
;MINX:80.718
;MINY:72.615
;MINZ:0.2
;MAXX:139.277
;MAXY:129.285
;MAXZ:6
;Generated with Cura_SteamEngine 4.13.1
M140 S60
M105
M190 S60
M104 S200
M105
M109 S200
M82 ;absolute extrusion mode
; Ender 3 Custom Start G-code
G92 E0 ; Reset Extruder
G28 ; Home all axes
G1 Z2.0 F3000 ; Move Z Axis up little to prevent scratching of Heat Bed
G1 X0.1 Y20 Z0.3 F5000.0 ; Move to start position
G1 X0.1 Y200.0 Z0.3 F1500.0 E15 ; Draw the first line
G1 X0.4 Y200.0 Z0.3 F5000.0 ; Move to side a little
G1 X0.4 Y20 Z0.3 F1500.0 E30 ; Draw the second line
G92 E0 ; Reset Extruder
G1 Z2.0 F3000 ; Move Z Axis up little to prevent scratching of Heat Bed
G1 X5 Y20 Z0.3 F5000.0 ; Move over to prevent blob squish
G92 E0
G92 E0
G1 F1500 E-6.5
;LAYER_COUNT:30
;LAYER:0
M107
G0 F6000 X83.916 Y75.879 Z0.2
;TYPE:SKIRT
G1 F1500 E0
G1 F1200 X84.604 Y75.242 E0.03119
G1 X85.344 Y74.666 E0.06237
G1 X86.13 Y74.154 E0.09357
G1 X86.957 Y73.712 E0.12476
G1 X87.819 Y73.342 E0.15596
G1 X88.709 Y73.046 E0.18716
G1 X89.621 Y72.828 E0.21835
G1 X90.548 Y72.687 E0.24953
G1 X91.419 Y72.628 E0.27857
G1 X91.74 Y72.619 E0.28925
G1 X92.048 Y72.615 E0.29949
G1 X124.563 Y72.615 E1.38095
G1 X125.422 Y72.626 E1.40952
G1 X126.358 Y72.679 E1.4407
G1 X127.286 Y72.812 E1.47188
G1 X128.2 Y73.024 E1.50309
G1 X129.093 Y73.312 E1.5343
G1 X129.957 Y73.676 E1.56548
G1 X130.788 Y74.112 E1.59669
G1 X131.578 Y74.617 E1.62788
G1 X132.322 Y75.187 E1.65905
G1 X132.726 Y75.542 E1.67694
G1 X132.856 Y75.662 E1.68282
G1 X133.091 Y75.886 E1.69362
G1 X133.412 Y76.201 E1.70858
G1 X135.663 Y78.452 E1.81446
G1 X136.158 Y78.961 E1.83807
G1 X136.782 Y79.661 E1.86926
G1 X137.345 Y80.411 E1.90046
G1 X137.842 Y81.206 E1.93164
G1 X138.269 Y82.041 E1.96283
G1 X138.624 Y82.91 E1.99405
G1 X138.903 Y83.805 E2.02523
G1 X139.105 Y84.721 E2.05643
G1 X139.228 Y85.651 E2.08763
G1 X139.266 Y86.27 E2.10826
G1 X139.272 Y86.453 E2.11435
G1 X139.277 Y86.971 E2.13158
G1 X139.271 Y87.388 E2.14545
G1 X139.245 Y88.004 E2.16596
G1 X139.145 Y89.41 E2.21284
G1 X139.104 Y89.904 E2.22933
G1 X138.968 Y92.371 E2.3115
G1 X138.901 Y94.896 E2.39552
G1 X138.905 Y97.42 E2.47946
G1 X138.981 Y99.94 E2.56332
G1 X139.128 Y102.47 E2.64761
G1 X139.213 Y103.502 E2.68205
G1 X139.249 Y104.037 E2.69988
G1 X139.265 Y104.355 E2.71047
G1 X139.271 Y104.525 E2.71613
G1 X139.277 Y105.07 E2.73426
G1 X139.271 Y105.491 E2.74826
G1 X139.218 Y106.427 E2.77944
G1 X139.085 Y107.356 E2.81066
G1 X138.873 Y108.269 E2.84183
G1 X138.585 Y109.162 E2.87304
G1 X138.221 Y110.026 E2.90422
G1 X137.785 Y110.857 E2.93543
G1 X137.28 Y111.647 E2.96662
G1 X136.71 Y112.391 E2.99779
G1 X136.078 Y113.084 E3.02899
G1 X135.429 Y113.687 E3.05845
G1 X134.696 Y114.315 E3.09056
G1 X132.708 Y116.067 E3.17869
G1 X130.87 Y117.78 E3.26226
G1 X129.093 Y119.536 E3.34535
G1 X127.343 Y121.364 E3.42952
G1 X125.66 Y123.226 E3.513
G1 X123.958 Y125.217 E3.60012
G1 X123.9 Y125.288 E3.60317
G1 X123.272 Y125.985 E3.63437
G1 X122.587 Y126.625 E3.66555
G1 X121.85 Y127.205 E3.69674
G1 X121.066 Y127.72 E3.72794
G1 X120.241 Y128.166 E3.75913
G1 X119.381 Y128.54 E3.79033
G1 X118.492 Y128.84 E3.82153
G1 X117.581 Y129.063 E3.85273
G1 X116.654 Y129.207 E3.88393
G1 X115.729 Y129.272 E3.91477
G1 X115.404 Y129.281 E3.92558
G1 X115.1 Y129.285 E3.9357
G1 X92.283 Y129.284 E4.69459
G1 X91.585 Y129.275 E4.71781
G1 X90.649 Y129.223 E4.74899
G1 X89.72 Y129.091 E4.7802
G1 X88.806 Y128.881 E4.81139
G1 X87.913 Y128.594 E4.84259
G1 X87.048 Y128.231 E4.87379
G1 X86.217 Y127.797 E4.90497
G1 X85.426 Y127.293 E4.93617
G1 X84.681 Y126.723 E4.96736
G1 X83.987 Y126.092 E4.99856
G1 X83.35 Y125.405 E5.02972
G1 X82.773 Y124.665 E5.06093
G1 X82.261 Y123.879 E5.09213
G1 X81.818 Y123.052 E5.12334
G1 X81.447 Y122.191 E5.15452
G1 X81.151 Y121.301 E5.18571
G1 X80.932 Y120.389 E5.21691
G1 X80.791 Y119.462 E5.2481
G1 X80.731 Y118.573 E5.27773
G1 X80.722 Y118.24 E5.28881
G1 X80.718 Y117.943 E5.29869
G1 X80.718 Y101.924 E5.83149
G1 X80.723 Y100.573 E5.87642
G1 X80.718 Y99.78 E5.9028
G1 X80.719 Y84.14 E6.42298
G1 X80.728 Y83.475 E6.4451
G1 X80.781 Y82.539 E6.47629
G1 X80.913 Y81.61 E6.50749
G1 X81.124 Y80.696 E6.53869
G1 X81.412 Y79.804 E6.56987
G1 X81.775 Y78.939 E6.60107
G1 X82.21 Y78.108 E6.63227
G1 X82.714 Y77.318 E6.66343
G1 X83.284 Y76.573 E6.69463
G1 X83.916 Y75.879 E6.72585
G0 F6000 X84.307 Y76.054
G1 F1200 X84.992 Y75.438 E6.75649
G1 X85.728 Y74.885 E6.78711
G1 X86.509 Y74.397 E6.81774
G1 X87.329 Y73.979 E6.84836
G1 X88.183 Y73.634 E6.87899
G1 X89.063 Y73.364 E6.90961
G1 X89.963 Y73.172 E6.94021
G1 X90.877 Y73.058 E6.97085
G1 X91.43 Y73.028 E6.98927
G1 X91.751 Y73.019 E6.99995
G1 X92.048 Y73.015 E7.00983
G1 X124.563 Y73.015 E8.09128
G1 X125.416 Y73.026 E8.11966
G1 X126.335 Y73.079 E8.15027
G1 X127.246 Y73.212 E8.18089
G1 X128.142 Y73.423 E8.21151
G1 X129.017 Y73.711 E8.24215
G1 X129.863 Y74.074 E8.27277
G1 X130.674 Y74.509 E8.30338
G1 X131.445 Y75.013 E8.33401
G1 X132.455 Y75.836 E8.37735
G1 X132.585 Y75.956 E8.38323
G1 X132.811 Y76.172 E8.39363
G1 X133.13 Y76.484 E8.40847
G1 X135.376 Y78.731 E8.51414
G1 X135.871 Y79.24 E8.53775
G1 X136.484 Y79.927 E8.56838
G1 X137.034 Y80.665 E8.59899
G1 X137.519 Y81.448 E8.62962
G1 X137.934 Y82.27 E8.66025
G1 X138.276 Y83.125 E8.69088
G1 X138.542 Y84.006 E8.72149
G1 X138.731 Y84.907 E8.75211
G1 X138.841 Y85.821 E8.78272
G1 X138.866 Y86.283 E8.79811
G1 X138.872 Y86.466 E8.8042
G1 X138.877 Y86.966 E8.82083
G1 X138.871 Y87.383 E8.83471
G1 X138.846 Y87.976 E8.85445
G1 X138.746 Y89.377 E8.90116
G1 X138.706 Y89.85 E8.91695
G1 X138.568 Y92.374 E9.00102
G1 X138.501 Y94.886 E9.0846
G1 X138.505 Y97.433 E9.16932
G1 X138.58 Y99.941 E9.25277
G1 X138.729 Y102.483 E9.33746
G1 X138.815 Y103.535 E9.37257
G1 X138.85 Y104.063 E9.39017
G1 X138.865 Y104.369 E9.40036
G1 X138.871 Y104.539 E9.40602
G1 X138.877 Y105.064 E9.42348
G1 X138.871 Y105.485 E9.43748
G1 X138.818 Y106.404 E9.4681
G1 X138.685 Y107.315 E9.49872
G1 X138.474 Y108.211 E9.52934
G1 X138.186 Y109.086 E9.55998
G1 X137.823 Y109.932 E9.5906
G1 X137.388 Y110.743 E9.6212
G1 X136.884 Y111.514 E9.65184
G1 X136.315 Y112.238 E9.68247
G1 X135.686 Y112.91 E9.71308
G1 X135.169 Y113.383 E9.73639
G1 X134.419 Y114.025 E9.76922
G1 X132.434 Y115.775 E9.85724
G1 X130.599 Y117.486 E9.94069
G1 X128.824 Y119.24 E10.02369
G1 X127.024 Y121.12 E10.11025
G1 X125.375 Y122.943 E10.19201
G1 X123.659 Y124.952 E10.27989
G1 X123.592 Y125.033 E10.28339
G1 X122.975 Y125.716 E10.314
G1 X122.301 Y126.343 E10.34462
G1 X121.575 Y126.91 E10.37525
G1 X120.802 Y127.411 E10.40589
G1 X119.99 Y127.843 E10.43648
G1 X119.142 Y128.203 E10.46713
G1 X118.267 Y128.488 E10.49773
G1 X117.37 Y128.696 E10.52836
G1 X116.458 Y128.826 E10.559
G1 X115.718 Y128.872 E10.58366
G1 X115.393 Y128.881 E10.59447
G1 X115.1 Y128.885 E10.60422
G1 X92.288 Y128.884 E11.36295
G1 X91.59 Y128.875 E11.38617
G1 X90.671 Y128.823 E11.41678
G1 X89.76 Y128.692 E11.44739
G1 X88.864 Y128.482 E11.478
G1 X87.989 Y128.195 E11.50863
G1 X87.142 Y127.833 E11.53927
G1 X86.33 Y127.399 E11.56989
G1 X85.559 Y126.897 E11.60049
G1 X84.834 Y126.329 E11.63112
G1 X84.161 Y125.7 E11.66176
G1 X83.546 Y125.016 E11.69235
G1 X82.992 Y124.281 E11.72297
G1 X82.504 Y123.5 E11.7536
G1 X82.085 Y122.68 E11.78422
G1 X81.739 Y121.827 E11.81484
G1 X81.469 Y120.947 E11.84546
G1 X81.276 Y120.046 E11.8761
G1 X81.162 Y119.133 E11.9067
G1 X81.131 Y118.562 E11.92572
G1 X81.122 Y118.229 E11.9368
G1 X81.118 Y117.943 E11.94632
G1 X81.118 Y101.926 E12.47905
G1 X81.123 Y100.571 E12.52411
G1 X81.118 Y99.778 E12.55049
G1 X81.119 Y84.146 E13.07041
G1 X81.128 Y83.481 E13.09253
G1 X81.18 Y82.561 E13.12318
G1 X81.312 Y81.65 E13.1538
G1 X81.523 Y80.754 E13.18441
G1 X81.81 Y79.879 E13.21504
G1 X82.173 Y79.033 E13.24566
G1 X82.607 Y78.221 E13.27628
G1 X83.11 Y77.45 E13.3069
G1 X83.679 Y76.726 E13.33753
G1 X84.307 Y76.054 E13.36812
G0 F6000 X84.699 Y76.232
G1 F1200 X85.38 Y75.639 E13.39815
G1 X86.112 Y75.109 E13.42821
G1 X86.887 Y74.646 E13.45824
G1 X87.7 Y74.253 E13.48827
G1 X88.545 Y73.933 E13.51832
G1 X89.414 Y73.69 E13.54834
G1 X90.302 Y73.524 E13.57838
G1 X91.441 Y73.428 E13.6164
G1 X91.762 Y73.419 E13.62708
G1 X92.048 Y73.415 E13.63659
G1 X124.563 Y73.415 E14.71805
G1 X125.41 Y73.426 E14.74622
G1 X126.312 Y73.479 E14.77627
G1 X127.205 Y73.611 E14.8063
G1 X128.083 Y73.822 E14.83633
G1 X128.939 Y74.11 E14.86637
G1 X129.767 Y74.472 E14.89643
G1 X130.559 Y74.906 E14.92646
G1 X131.309 Y75.409 E14.9565
G1 X132.183 Y76.13 E14.99418
G1 X132.313 Y76.25 E15.00007
G1 X132.531 Y76.457 E15.01007
G1 X132.847 Y76.767 E15.02479
G1 X135.089 Y79.01 E15.13027
G1 X135.584 Y79.519 E15.15389
G1 X136.185 Y80.193 E15.18392
G1 X136.723 Y80.919 E15.21397
G1 X137.195 Y81.688 E15.24399
G1 X137.597 Y82.497 E15.27403
G1 X137.926 Y83.338 E15.30407
G1 X138.18 Y84.205 E15.33412
G1 X138.355 Y85.091 E15.36415
G1 X138.467 Y86.296 E15.40441
G1 X138.473 Y86.479 E15.4105
G1 X138.477 Y86.96 E15.42649
G1 X138.471 Y87.377 E15.44036
G1 X138.447 Y87.948 E15.45937
G1 X138.347 Y89.343 E15.50589
G1 X138.309 Y89.793 E15.52091
G1 X138.168 Y92.376 E15.60695
G1 X138.101 Y94.876 E15.69013
G1 X138.105 Y97.445 E15.77557
G1 X138.18 Y99.941 E15.85863
G1 X138.332 Y102.54 E15.94522
G1 X138.429 Y103.746 E15.98546
G1 X138.451 Y104.088 E15.99686
G1 X138.466 Y104.383 E16.00668
G1 X138.472 Y104.553 E16.01234
G1 X138.477 Y105.058 E16.02914
G1 X138.471 Y105.479 E16.04314
G1 X138.418 Y106.381 E16.0732
G1 X138.286 Y107.274 E16.10322
G1 X138.075 Y108.152 E16.13325
G1 X137.787 Y109.008 E16.16329
G1 X137.425 Y109.836 E16.19335
G1 X136.991 Y110.628 E16.22339
G1 X136.488 Y111.378 E16.25342
G1 X135.922 Y112.081 E16.28344
G1 X135.295 Y112.731 E16.31348
G1 X134.909 Y113.08 E16.33079
G1 X134.138 Y113.741 E16.36456
G1 X132.161 Y115.483 E16.4522
G1 X130.329 Y117.191 E16.53551
G1 X128.519 Y118.98 E16.62015
G1 X126.755 Y120.821 E16.70496
G1 X125.04 Y122.718 E16.79001
G1 X123.39 Y124.65 E16.87452
G1 X123.284 Y124.778 E16.88005
G1 X122.678 Y125.448 E16.91009
G1 X122.015 Y126.061 E16.94013
G1 X121.301 Y126.614 E16.97016
G1 X120.54 Y127.101 E17.00021
G1 X119.739 Y127.519 E17.03026
G1 X118.905 Y127.864 E17.06028
G1 X118.043 Y128.134 E17.09033
G1 X117.161 Y128.327 E17.12036
G1 X116.265 Y128.441 E17.1504
G1 X115.707 Y128.472 E17.16899
G1 X115.382 Y128.481 E17.1798
G1 X115.1 Y128.485 E17.18918
G1 X92.293 Y128.484 E17.94774
G1 X91.595 Y128.475 E17.97096
G1 X90.694 Y128.424 E18.00098
G1 X89.8 Y128.292 E18.03103
G1 X88.922 Y128.083 E18.06105
G1 X88.065 Y127.796 E18.09111
G1 X87.238 Y127.435 E18.12112
G1 X86.445 Y127.002 E18.15117
G1 X85.694 Y126.501 E18.1812
G1 X84.99 Y125.935 E18.21125
G1 X84.339 Y125.309 E18.24128
G1 X83.746 Y124.628 E18.27132
G1 X83.216 Y123.897 E18.30135
G1 X82.752 Y123.122 E18.33139
G1 X82.358 Y122.309 E18.36144
G1 X82.038 Y121.465 E18.39146
G1 X81.794 Y120.595 E18.42152
G1 X81.628 Y119.707 E18.45156
G1 X81.531 Y118.552 E18.49011
G1 X81.522 Y118.219 E18.50119
G1 X81.518 Y117.943 E18.51037
G1 X81.518 Y101.927 E19.04307
G1 X81.523 Y100.568 E19.08827
G1 X81.518 Y99.775 E19.11464
G1 X81.519 Y84.151 E19.6343
G1 X81.528 Y83.486 E19.65642
G1 X81.58 Y82.584 E19.68647
G1 X81.712 Y81.691 E19.7165
G1 X81.922 Y80.813 E19.74652
G1 X82.209 Y79.956 E19.77658
G1 X82.571 Y79.129 E19.80661
G1 X83.004 Y78.337 E19.83663
G1 X83.506 Y77.586 E19.86667
G1 X84.073 Y76.882 E19.89674
G1 X84.699 Y76.232 E19.92675
G1 F1500 E13.42675
;MESH:New attempt.STL(1)
G0 F6000 X92.132 Y82.95
G0 X92.132 Y84.029
G0 X92.5 Y99.403
G0 X114.83 Y99.585
;TYPE:WALL-INNER
G1 F1500 E19.92675
G1 F1200 X92.318 Y99.585 E20.67551
G1 X92.318 Y84.215 E21.18671
G1 X125.022 Y84.215 E22.27445
G1 X126.655 Y85.848 E22.35126
G1 X126.238 Y85.745 E22.36555
G1 X125.368 Y85.67 E22.39459
G1 X124.494 Y85.732 E22.42374
G1 X123.641 Y85.929 E22.45285
G1 X122.82 Y86.263 E22.48233
G1 X122.264 Y86.596 E22.50389
G1 X101.83 Y86.596 E23.18353
G1 X101.83 Y92.196 E23.36978
G1 X114.83 Y92.196 E23.80217
G1 X114.83 Y99.585 E24.04793
G0 F6000 X115.23 Y99.985
;TYPE:WALL-OUTER
G1 F1200 X91.918 Y99.985 E24.82329
G1 X91.918 Y83.815 E25.3611
G1 X125.188 Y83.815 E26.46767
G1 X128.082 Y86.708 E26.60377
G1 X128.082 Y86.88 E26.60949
G1 X127.71 Y86.65 E26.62404
G1 X126.961 Y86.335 E26.65106
G1 X126.173 Y86.141 E26.67805
G1 X125.365 Y86.071 E26.70503
G1 X124.554 Y86.129 E26.73207
G1 X123.762 Y86.312 E26.75911
G1 X122.999 Y86.622 E26.7865
G1 X122.374 Y86.996 E26.81072
G1 X102.23 Y86.996 E27.48072
G1 X102.23 Y91.796 E27.64036
G1 X115.23 Y91.796 E28.07275
G1 X115.23 Y99.985 E28.34511
G0 F6000 X114.96 Y99.715
G0 X114.72 Y99.195
G0 X114.44 Y99.195
;TYPE:SKIN
G1 F1200 X92.708 Y99.195 E29.06792
G1 X92.708 Y84.605 E29.55319
G1 X124.862 Y84.605 E30.62263
G1 X125.551 Y85.294 E30.65504
G1 X125.371 Y85.278 E30.66105
G1 X124.436 Y85.346 E30.69223
G1 X123.522 Y85.556 E30.72343
G1 X122.645 Y85.913 E30.75492
G1 X122.156 Y86.206 E30.77388
G1 X101.44 Y86.206 E31.4629
G1 X101.44 Y92.586 E31.6751
G1 X114.44 Y92.586 E32.10748
G1 X114.44 Y99.195 E32.32729
G1 F1500 E25.82729
G0 F6000 X114.72 Y99.195
G0 X115.002 Y92.024
G0 X102.002 Y92.024
G0 X102.002 Y86.768
G0 X122.892 Y86.407
G0 X124.79 Y85.601
G1 F1500 E32.32729
G0 F6000 X124.759 Y85.161
G1 F1200 X124.363 Y84.765 E32.34592
G0 F6000 X124.254 Y85.222
G1 F1200 X123.797 Y84.765 E32.36742
G0 F6000 X123.795 Y85.328
G1 F1200 X123.231 Y84.765 E32.39392
G0 F6000 X122.666 Y84.765
G1 F1200 X123.351 Y85.451 E32.42617
G0 F6000 X122.95 Y85.615
G1 F1200 X122.1 Y84.765 E32.46615
G0 F6000 X121.534 Y84.765
G1 F1200 X122.551 Y85.781 E32.51396
G0 F6000 X122.197 Y85.993
G1 F1200 X120.968 Y84.765 E32.57174
G0 F6000 X120.403 Y84.765
G1 F1200 X121.683 Y86.045 E32.63195
G0 F6000 X121.118 Y86.045
G1 F1200 X119.837 Y84.765 E32.69218
G0 F6000 X119.271 Y84.765
G1 F1200 X120.552 Y86.045 E32.75241
G0 F6000 X119.986 Y86.045
G1 F1200 X118.706 Y84.765 E32.81262
G0 F6000 X118.14 Y84.765
G1 F1200 X119.421 Y86.045 E32.87285
G0 F6000 X118.855 Y86.045
G1 F1200 X117.574 Y84.765 E32.93308
G0 F6000 X117.009 Y84.765
G1 F1200 X118.289 Y86.045 E32.99329
G0 F6000 X117.724 Y86.045
G1 F1200 X116.443 Y84.765 E33.05352
G0 F6000 X115.877 Y84.765
G1 F1200 X117.158 Y86.045 E33.11375
G0 F6000 X116.592 Y86.045
G1 F1200 X115.312 Y84.765 E33.17396
G0 F6000 X114.746 Y84.765
G1 F1200 X116.027 Y86.045 E33.23419
G0 F6000 X115.461 Y86.045
G1 F1200 X114.18 Y84.765 E33.29442
G0 F6000 X113.615 Y84.765
G1 F1200 X114.895 Y86.045 E33.35463
G0 F6000 X114.329 Y86.045
G1 F1200 X113.049 Y84.765 E33.41483
G0 F6000 X112.483 Y84.765
G1 F1200 X113.764 Y86.045 E33.47507
G0 F6000 X113.198 Y86.045
G1 F1200 X111.918 Y84.765 E33.53527
G0 F6000 X111.352 Y84.765
G1 F1200 X112.632 Y86.045 E33.59548
G0 F6000 X112.067 Y86.045
G1 F1200 X110.786 Y84.765 E33.65571
G0 F6000 X110.22 Y84.765
G1 F1200 X111.501 Y86.045 E33.71594
G0 F6000 X110.935 Y86.045
G1 F1200 X109.655 Y84.765 E33.77615
G0 F6000 X109.089 Y84.765
G1 F1200 X110.37 Y86.045 E33.83638
G0 F6000 X109.804 Y86.045
G1 F1200 X108.523 Y84.765 E33.89661
G0 F6000 X107.958 Y84.765
G1 F1200 X109.238 Y86.045 E33.95682
G0 F6000 X108.673 Y86.045
G1 F1200 X107.392 Y84.765 E34.01705
G0 F6000 X106.826 Y84.765
G1 F1200 X108.107 Y86.045 E34.07728
G0 F6000 X107.541 Y86.045
G1 F1200 X106.261 Y84.765 E34.13749
G0 F6000 X105.695 Y84.765
G1 F1200 X106.976 Y86.045 E34.19772
G0 F6000 X106.41 Y86.045
G1 F1200 X105.129 Y84.765 E34.25795
G0 F6000 X104.564 Y84.765
G1 F1200 X105.844 Y86.045 E34.31816
G0 F6000 X105.279 Y86.045
G1 F1200 X103.998 Y84.765 E34.37839
G0 F6000 X103.432 Y84.765
G1 F1200 X104.713 Y86.045 E34.43862
G0 F6000 X104.147 Y86.045
G1 F1200 X102.867 Y84.765 E34.49882
G0 F6000 X102.301 Y84.765
